T: Flett From Flotta
M: 4/4
L: 1/8
K: Gmaj
e>d[|BdBA B2GB|d>edB d2Bd|e>deg edBd|edBG A2e>d|
BdBA B2GB|d>edB g2GA|B2g>e dBAB|G2G>A G2|]
GB[|d2GB g2GB|d>edB d2GB|g2GB d2Bd|e>dBG A2e>d|
BdBA B2GB|d>edB g2GA|B2g>e dBAB|G2G>A G2|]
